dist/images/icon/worker.svg

<svg width="30" height="30" viewBox="0 0 30 30" fill="none" xmlns="http://www.w3.org/2000/svg">
<path d="M8.05469 6.37226C8.60077 4.65026 9.98229 3.2266 11.7995 2.44656V4.6001C11.7995 5.04194 12.1576 5.4001 12.5995 5.4001C13.0413 5.4001 13.3995 5.04194 13.3995 4.6001V1.4001C13.3995 0.958274 13.7576 0.600098 14.1995 0.600098H15.7995C16.2413 0.600098 16.5995 0.958274 16.5995 1.4001V4.6001C16.5995 5.04194 16.9576 5.4001 17.3995 5.4001C17.8413 5.4001 18.1995 5.04194 18.1995 4.6001V2.44656C20.0424 3.23764 21.4372 4.69074 21.967 6.44554C21.7619 6.6125 21.419 6.81306 20.8832 7.00858C19.6895 7.44402 17.6878 7.8001 14.5784 7.8001C12.3397 7.8001 10.54 7.4513 9.32629 7.00858C8.74013 6.79474 8.31917 6.5693 8.05469 6.37226Z" fill="black"/>
<path fill-rule="evenodd" clip-rule="evenodd" d="M21.4323 8.51149C22.1404 8.25317 22.6982 7.94269 23.0953 7.58589C23.549 8.01997 23.8002 8.49797 23.8002 8.99997C23.8002 9.95837 22.8848 10.8292 21.392 11.4744C21.3975 11.5822 21.4002 11.6908 21.4002 11.8C21.4002 15.3346 18.5348 18.2 15.0002 18.2C11.4656 18.2 8.6002 15.3346 8.6002 11.8C8.6002 11.6908 8.60292 11.5822 8.60836 11.4744C7.11564 10.8292 6.2002 9.95837 6.2002 8.99997C6.2002 8.48045 6.46924 7.98661 6.9534 7.54053C6.98356 7.56549 7.01364 7.58949 7.04332 7.61253C7.47876 7.94965 8.07364 8.25429 8.77868 8.51149C10.1965 9.02877 12.1863 9.39997 14.5792 9.39997C17.7856 9.39997 19.9944 9.03605 21.4323 8.51149ZM10.2051 12.0191C10.3196 14.5684 12.4227 16.6 15.0002 16.6C17.5777 16.6 19.6808 14.5684 19.7953 12.0191C18.4159 12.3865 16.769 12.6 15.0002 12.6C13.2314 12.6 11.5845 12.3865 10.2051 12.0191Z" fill="black"/>
<path fill-rule="evenodd" clip-rule="evenodd" d="M0.600098 29.4H17.4001V20.2L15.8001 21.4V24.5176C15.6364 24.5596 15.38 24.6 15.0001 24.6C14.6202 24.6 14.3638 24.5596 14.2001 24.5176V21.5779L10.4827 18.6865C5.8161 19.582 0.600098 21.6712 0.600098 24.6V29.4ZM6.2001 27.8H12.6001V23.9444L7.37994 24.8144L8.88058 20.6877C7.94834 20.9308 7.0385 21.2184 6.2001 21.5445V27.8ZM2.2001 27.8H4.6001V22.2632L4.54074 22.2944C3.69007 22.7453 3.06726 23.2052 2.67504 23.6392C2.29178 24.0632 2.2001 24.3775 2.2001 24.6V27.8Z" fill="black"/>
<path d="M21.8564 16.3205C22.3186 15.8486 22.9602 16.3242 22.8191 16.9694L22.7984 17.0637C22.491 18.4692 23.5614 19.799 25.0001 19.799C26.4388 19.799 27.5092 18.4692 27.2018 17.0637L27.1811 16.9694C27.04 16.3242 27.6816 15.8486 28.1438 16.3205C28.921 17.114 29.4001 18.2006 29.4001 19.399C29.4001 20.9719 28.5747 22.3521 27.3335 23.13C27.1107 23.2697 27.0001 23.5371 27.0001 23.8V27.8C27.0001 28.6837 26.2838 29.4 25.4001 29.4H24.6001C23.7164 29.4 23.0001 28.6837 23.0001 27.8V23.8C23.0001 23.5371 22.8895 23.2697 22.6667 23.13C21.4255 22.3521 20.6001 20.9719 20.6001 19.399C20.6001 18.2006 21.0792 17.114 21.8564 16.3205Z" fill="black"/>
</svg>

<svg width="30" height="30" fill="none" xmlns="http://www.w3.org/2000/svg"><path d="M8.055 6.372C8.6 4.65 9.982 3.227 11.8 2.447V4.6a.8.8 0 101.6 0V1.4a.8.8 0 01.8-.8h1.6a.8.8 0 01.8.8v3.2a.8.8 0 101.6 0V2.447c1.842.79 3.237 2.244 3.767 3.999-.205.167-.548.367-1.084.563-1.194.435-3.195.791-6.305.791-2.238 0-4.038-.349-5.252-.791-.586-.214-1.007-.44-1.271-.637z" fill="#000"/><path fill-rule="evenodd" clip-rule="evenodd" d="M21.432 8.511c.708-.258 1.266-.568 1.663-.925.454.434.705.912.705 1.414 0 .958-.915 1.83-2.408 2.474a6.4 6.4 0 11-12.784 0C7.116 10.83 6.2 9.958 6.2 9c0-.52.27-1.013.753-1.46.03.025.06.05.09.073.436.337 1.03.641 1.736.898 1.418.518 3.407.889 5.8.889 3.207 0 5.415-.364 6.853-.889zM10.205 12.02a4.8 4.8 0 009.59 0c-1.38.367-3.026.581-4.795.581-1.769 0-3.415-.213-4.795-.58zM.6 29.4h16.8v-9.2l-1.6 1.2v3.118c-.164.042-.42.082-.8.082-.38 0-.636-.04-.8-.082v-2.94l-3.717-2.892C5.816 19.582.6 21.671.6 24.6v4.8zm5.6-1.6h6.4v-3.856l-5.22.87 1.5-4.126c-.932.243-1.842.53-2.68.857V27.8zm-4 0h2.4v-5.537l-.06.031c-.85.451-1.473.911-1.865 1.345-.383.424-.475.739-.475.961v3.2z" fill="#000"/><path d="M21.856 16.32c.463-.471 1.104.004.963.65l-.02.094a2.254 2.254 0 104.403 0l-.02-.095c-.142-.645.5-1.12.962-.649a4.397 4.397 0 01-.81 6.81c-.223.14-.334.407-.334.67v4a1.6 1.6 0 01-1.6 1.6h-.8a1.6 1.6 0 01-1.6-1.6v-4c0-.263-.11-.53-.333-.67a4.397 4.397 0 01-.81-6.81z" fill="#000"/></svg>
